SVG/exclamation-circle.svg

<?xml version="1.0" encoding="utf-8"?>
<!-- Generated by IcoMoon.io -->
<!DOCTYPE svg PUBLIC "-//W3C//DTD SVG 1.1//EN" "http://www.w3.org/Graphics/SVG/1.1/DTD/svg11.dtd">
<svg version="1.1" xmlns="http://www.w3.org/2000/svg" xmlns:xlink="http://www.w3.org/1999/xlink" width="12" height="14" viewBox="0 0 12 14">
<path fill="#444444" d="M6 1q1.633 0 3.012 0.805t2.184 2.184 0.805 3.012-0.805 3.012-2.184 2.184-3.012 0.805-3.012-0.805-2.184-2.184-0.805-3.012 0.805-3.012 2.184-2.184 3.012-0.805zM7 10.742v-1.484q0-0.109-0.070-0.184t-0.172-0.074h-1.5q-0.102 0-0.18 0.078t-0.078 0.18v1.484q0 0.102 0.078 0.18t0.18 0.078h1.5q0.102 0 0.172-0.074t0.070-0.184zM6.984 8.055l0.141-4.852q0-0.094-0.078-0.141-0.078-0.062-0.187-0.062h-1.719q-0.109 0-0.187 0.062-0.078 0.047-0.078 0.141l0.133 4.852q0 0.078 0.078 0.137t0.187 0.059h1.445q0.109 0 0.184-0.059t0.082-0.137z"></path>
</svg>

<svg xmlns="http://www.w3.org/2000/svg" viewBox="0 0 12 14"><path d="M6 1q1.633 0 3.012.805t2.184 2.184T12 7t-.804 3.013-2.184 2.184T6 13.002t-3.012-.805-2.184-2.184T0 7t.804-3.01 2.184-2.185T6 1zm1 9.742V9.258q0-.11-.07-.184T6.758 9h-1.5q-.102 0-.18.078T5 9.258v1.484q0 .102.078.18t.18.078h1.5q.102 0 .172-.074t.07-.184zm-.016-2.687l.14-4.852q0-.094-.077-.14Q6.97 3 6.86 3H5.14q-.108 0-.186.062-.078.047-.078.14l.133 4.853q0 .078.077.137t.187.06H6.72q.108 0 .183-.06t.082-.137z" /></svg>
